caps/static/img/donate.svg

<svg fill="none" height="18" viewBox="0 0 20 18" width="20" xmlns="http://www.w3.org/2000/svg"><path d="m12.9746 5.64882.0011-.00098c.3449-.33117.3013-.89178-.0797-1.17166-.493-.36657-1.0705-.59629-1.6734-.67524v-.43605c0-.54976-.4432-.99301-.993-.99301h-.46339c-.54977 0-.99302.44325-.99302.99301v.42481c-1.39465.18562-2.46297 1.40786-2.46731 2.88076v.00088c0 1.28344.83321 2.43531 2.03815 2.79639.00005.00002.00009.00003.00014.00004l2.60073.78063.0012.0004c.1504.0444.2902.2172.2902.4471 0 .2896-.2022.4639-.3805.4639h-1.62396c-.21174 0-.40664-.0555-.58327-.1667l-.00136-.0009c-.28139-.1751-.67513-.1869-.95084.0802l-.67935.646-.00102.001c-.34497.3311-.30139.8917.07965 1.1716.49302.3666 1.07048.5963 1.67337.6752v.4361c0 .5498.44325.993.99302.993h.46336c.5498 0 .9931-.4432.9931-.993v-.4248c1.3945-.1856 2.4673-1.4074 2.4673-2.8816 0-1.28349-.8332-2.43536-2.0382-2.79644 0-.00002-.0001-.00003-.0001-.00005l-2.60078-.78064-.00116-.00035c-.1504-.04448-.29024-.21725-.29024-.44708 0-.28961.20219-.46399.3805-.46399h1.62398c.2117 0 .4066.05557.5833.16679l.0013.00084c.2814.17509.6752.18696.9509-.08016zm5.409 3.03477c0 4.63121-3.7524 8.38361-8.3836 8.38361-4.78215 0-8.38359-3.7489-8.38359-8.38361 0-4.63116 3.75242-8.38359 8.38359-8.38359 4.6312 0 8.3836 3.75243 8.3836 8.38359z" fill="#045c88" stroke="#404040" stroke-width=".6"/></svg>

<svg width="20" height="18" viewBox="0 0 20 18" fill="none" xmlns="http://www.w3.org/2000/svg">
<path d="M12.9746 5.64882L12.9757 5.64784C13.3206 5.31667 13.277 4.75606 12.896 4.47618C12.403 4.10961 11.8255 3.87989 11.2226 3.80094V3.36489C11.2226 2.81513 10.7794 2.37188 10.2296 2.37188H9.76621C9.21644 2.37188 8.77319 2.81513 8.77319 3.36489V3.7897C7.37854 3.97532 6.31022 5.19756 6.30588 6.67046V6.67134C6.30588 7.95478 7.13909 9.10665 8.34403 9.46773C8.34408 9.46775 8.34412 9.46776 8.34417 9.46777L10.9449 10.2484L10.9461 10.2488C11.0965 10.2932 11.2363 10.466 11.2363 10.6959C11.2363 10.9855 11.0341 11.1598 10.8558 11.1598H9.23184C9.0201 11.1598 8.8252 11.1043 8.64857 10.9931L8.64721 10.9922C8.36582 10.8171 7.97208 10.8053 7.69637 11.0724L7.01702 11.7184L7.016 11.7194C6.67103 12.0505 6.71461 12.6111 7.09565 12.891C7.58867 13.2576 8.16613 13.4873 8.76902 13.5662V14.0023C8.76902 14.5521 9.21227 14.9953 9.76204 14.9953H10.2254C10.7752 14.9953 11.2185 14.5521 11.2185 14.0023V13.5775C12.613 13.3919 13.6858 12.1701 13.6858 10.6959C13.6858 9.41241 12.8526 8.26054 11.6476 7.89946C11.6476 7.89944 11.6475 7.89943 11.6475 7.89941L9.04672 7.11877L9.04556 7.11842C8.89516 7.07394 8.75532 6.90117 8.75532 6.67134C8.75532 6.38173 8.95751 6.20735 9.13582 6.20735H10.7598C10.9715 6.20735 11.1664 6.26292 11.3431 6.37414L11.3444 6.37498C11.6258 6.55007 12.0196 6.56194 12.2953 6.29482L12.9746 5.64882ZM18.3836 8.68359C18.3836 13.3148 14.6312 17.0672 10 17.0672C5.21785 17.0672 1.61641 13.3183 1.61641 8.68359C1.61641 4.05243 5.36883 0.3 10 0.3C14.6312 0.3 18.3836 4.05243 18.3836 8.68359Z" fill="#045C88" stroke="#404040" stroke-width="0.6"/>
</svg>
